packages/icons/src/assets/upload-2.svg

<svg xmlns="http://www.w3.org/2000/svg" width="24" height="24"><g clip-path="url(#a)"><path fill-rule="evenodd" d="m12 16.703-4.26-3.93 1.02-1.103 2.49 2.295V3h1.5v10.965l2.49-2.295 1.02 1.103zm3.75-8.453h3A2.257 2.257 0 0 1 21 10.5v8.25A2.257 2.257 0 0 1 18.75 21H5.25A2.257 2.257 0 0 1 3 18.75V10.5a2.257 2.257 0 0 1 2.25-2.25h3v1.5h-3a.75.75 0 0 0-.75.75v8.25c0 .413.338.75.75.75h13.5c.413 0 .75-.337.75-.75V10.5a.75.75 0 0 0-.75-.75h-3z" clip-rule="evenodd"/></g><defs><clipPath id="a"><path d="M0 0h24v24H0z"/></clipPath></defs></svg>

<svg width="100%" height="100%" viewBox="0 0 24 24" version="1.1" xmlns="http://www.w3.org/2000/svg" xmlns:xlink="http://www.w3.org/1999/xlink" xml:space="preserve" style="fill-rule:evenodd;clip-rule:evenodd;stroke-linejoin:round;stroke-miterlimit:2;"><path d="M12,16.703L7.74,12.773L8.76,11.67L11.25,13.965L11.25,3L12.75,3L12.75,13.965L15.24,11.67L16.26,12.773L12,16.703ZM15.75,8.25L18.75,8.25C19.983,8.254 20.996,9.267 21,10.5L21,18.75C20.996,19.983 19.983,20.996 18.75,21L5.25,21C4.017,20.996 3.004,19.983 3,18.75L3,10.5C3.004,9.267 4.017,8.254 5.25,8.25L8.25,8.25L8.25,9.75L5.25,9.75C4.839,9.75 4.5,10.089 4.5,10.5L4.5,18.75C4.5,19.163 4.838,19.5 5.25,19.5L18.75,19.5C19.163,19.5 19.5,19.163 19.5,18.75L19.5,10.5C19.5,10.089 19.161,9.75 18.75,9.75L15.75,9.75L15.75,8.25Z"/></svg>
